X: 31525
T: Paddy's Leather Breeches
R: jig
M: 6/8
K: Dmajor
|:BBB f2e|fBB f2e|BBB f2e|cAA e2c|
BBB f2e|fBB f2e|fga efa|cAA e2c:|
|:a3 f2e|fBB f2e|a3 f2e|cAA e2c|
a3 f2e|fBB f2 e|fga efa|cAA e2c:|
|:BBB ccc|BBB f2e|ccc BBB|AAA e2c|
BBB cBc|Bce f2e|fga efa|cAA e2c:|
|:aga f2e|fBB f2e|aga fee|cAA fec|
aga f2e|fBB f2 e|fga efa|cAA e2c:|
|:BBB BBB|BBB f2e|BBB Bcd|cAA e2c|
BBB BBB|BBB f2e|fga efa|cAA e2c:|
|:Baf ada|BBB f2e|Bad aBa|cAA e2c|
Baf ada|BBB f2e|fga efa|cAA e2c:|

